X: 9525
T: Darklight
R: reel
M: 4/4
K: Dmajor
d8-|d8-|d8-|d4{e}d2cB|A8-|A8-|A4E2JF2-|F4{E}FED2-|D2{E}D6-|D8-|D8-|
D6Jd2-|d4z4|z8|z3E3JF2-|F2A2B4-|B4{c}B4-|B8-|B4z2dJe-|e8|{a}e2d2c{c}B3-|B8-|!>!B6z2|
z8|z8|z3EFGAG-|G{A}F3E4-|E8-|E8-|E8-|E8-|Je8-|e6dB|z8|z8|z8|z8|
z4d4-|d8-|d8-|d8-|d2{e}dc~B2A2|JA3GF4-|F8-|F8|z6JE2|JE2ED2-D3-|D8-|D8-|D4Jd4-|d8-|d8|z8
z3AJBde2-|e8-|e8-|e8-|e8|z4e3Jf-|f8-|f6z2|Ja8-a8-|a4-a3Jb-|b3g2z3|
z3Jf3-f2-|fe/d/Jf3-f2e/d/|Jf4e/d/Jf3-|f3e/d/Jf3e|z8|z3{F}f2e/d/e2|d/B/z7|zJFGED4-|D8-|D8|

